/* XPM */
static char * C:\Users\User\Desktop\new_assets\ninja_idle_xpm[] = {
"64 64 103 2",
"  	c #A36C3E",
". 	c #000000",
"+ 	c #E0CD8B",
"@ 	c #CAA55C",
"# 	c #C69E53",
"$ 	c #C7C7C8",
"% 	c #CBCCCC",
"& 	c #D2D2D2",
"* 	c #7B7B7B",
"= 	c #020202",
"- 	c #171718",
"; 	c #151515",
"> 	c #070808",
", 	c #3A3A39",
"' 	c #4B4B4C",
") 	c #1B1B1B",
"! 	c #2B2B2B",
"~ 	c #373837",
"{ 	c #171818",
"] 	c #353535",
"^ 	c #232323",
"/ 	c #B3B3B3",
"( 	c #D9D9D9",
"_ 	c #ACACAC",
": 	c #9B9B9B",
"< 	c #636363",
"[ 	c #5C5C5C",
"} 	c #5F5F60",
"| 	c #444444",
"1 	c #383837",
"2 	c #C3C3C3",
"3 	c #535353",
"4 	c #0B0B0C",
"5 	c #D6D6D6",
"6 	c #A3A3A3",
"7 	c #BCBCBC",
"8 	c #848484",
"9 	c #939394",
"0 	c #8D8D8D",
"a 	c #30302F",
"b 	c #20201E",
"c 	c #201F1E",
"d 	c #1F1F20",
"e 	c #DFDFDD",
"f 	c #575758",
"g 	c #0D0E14",
"h 	c #9B9CA1",
"i 	c #A09D7F",
"j 	c #AEA02B",
"k 	c #9F9D86",
"l 	c #9E9D90",
"m 	c #ADA030",
"n 	c #A09D81",
"o 	c #A8A8A7",
"p 	c #ECECEC",
"q 	c #E1E1DF",
"r 	c #E2E3EC",
"s 	c #EAE5B6",
"t 	c #FFEA32",
"u 	c #FEEA3B",
"v 	c #FFEA2A",
"w 	c #E8E5BE",
"x 	c #E2E3EB",
"y 	c #E1E1E1",
"z 	c #E2E3E7",
"A 	c #E6E4D1",
"B 	c #FDEA40",
"C 	c #FFEB25",
"D 	c #DFE0EA",
"E 	c #F3F3F0",
"F 	c #D1D1CE",
"G 	c #D2D3DC",
"H 	c #DAD5A9",
"I 	c #F1DA27",
"J 	c #EFDA35",
"K 	c #E5D76A",
"L 	c #D7D5C1",
"M 	c #D3D3D7",
"N 	c #D4D4D2",
"O 	c #D3D3D3",
"P 	c #D3D3D8",
"Q 	c #EEDA38",
"R 	c #E6D863",
"S 	c #D7D5BC",
"T 	c #CFCFD4",
"U 	c #EBEBE9",
"V 	c #757575",
"W 	c #DBDCE4",
"X 	c #E3DFBB",
"Y 	c #F5E24E",
"Z 	c #F2E261",
"` 	c #DDDDE1",
" .	c #E0DECD",
"..	c #DEDEDA",
"+.	c #979898",
"@.	c #272828",
"#.	c #181717",
"$.	c #6C6C6C",
"%.	c #100F10",
"&.	c #2F302F",
"*.	c #070708",
"=.	c #0F1010",
"-.	c #777778",
"                                                                                                                                ",
"              . . . . . . . . . . . . . . . . . . . . . . . . . . . . . . . . . . . . . . . . . . . . . . . . . . .             ",
"          . . . . . . . . . . . . . . . . . . . . . . . . . . . . . . . . . . . . . . . . . . . . . . . . . . . . . .           ",
"        . . . + + + + + + + + + + + + + + + + + + + + + + + + + + + + + + + + + + + + + + + + + + + + + + + + + + . . .         ",
"      . . . @ # # # + + + + + + + + + + + + + + # # # # # # + + + + + + + + + + + + + + # # # # # # + + + + + + + + . . .       ",
"    . . . # # # # # + + + + + + + + + + + + + + # # # # # # + + + + + + + + + + + + + + # # # # # # + + + + + + + + + . . .     ",
"    . . + + + + + + + + + + + + + + + + + + + + + + + + $ $ % $ % $ % $ $ $ & + + + + + + + + + + + + + + + + + + + + + . . .   ",
"  . . + + + + + + + + + + + + + + + + + + + + + + + + * = - ; ; ; ; ; ; - > , + + + + + + + + + + + + + + + + + + + + + + . .   ",
"  . . + + + + + + + + + + + + + + + + + + + + + + ' - ) ) ) ) ) ) ) ) ) ) ) ) ) ! + + + + + + + + + + + + + + + + + + + + . .   ",
"  . . + + + + + + + + + + + + + + + + + + + + ~ ! ) - ) ) { ) ] ] ] ] ] ] ] ] ! ) ] ^ / + + + + + + + + + + + + + + + + + . .   ",
"  . . + + + + + + + + + + + # # # # # # + ( , - ; ) ) - ^ ] ] ~ ~ ~ ~ ~ ~ ~ ~ ~ ] ! - ^ _ + + + + + + + + + # # # # # # + . .   ",
"  . . + + + + + + + : ' < [ } [ # # # # $ | ; ) ) ) - ^ ] 1 ~ ~ ~ ~ ~ ~ ~ ~ ~ ~ ~ 1 ~ - ! : + + + + + + + + # # # # # # + . .   ",
"  . . + + + + + + + 2 3 > 4 > 4 < 5 + + / = ) ) ) - ^ ] 1 ~ ~ ~ ~ ~ ~ ~ ~ ~ ~ ~ ~ ~ 1 ~ > < + + + + + + + + + + + + + + + . .   ",
"  . . + + + + + + + + 6 = ^ ) ^ = 7 + $ < - ) ) ) - ! 1 ~ ~ ~ ~ ~ ~ ~ ~ ~ ~ ~ ~ ~ ~ ~ , ^ | 7 + + + + + + + + + + + + + + . .   ",
"  . . + + + + + + + + 2 | 4 4 4 ; 8 + 8 = ) ) ) ) ) ! ~ ~ ~ ~ ~ ~ ~ ~ ~ ~ ~ ~ ~ ~ ~ ~ ~ ! > | + + + + + + + + + + + + + + . .   ",
"  . . + + + + + + + + + ( | ' ' ^ = 9 0 > ) ) ) { a ~ ~ ~ ~ ~ ~ ~ ~ ~ ~ ~ ~ ~ ~ ~ ~ ~ ~ , ^ 3 + + + + + + + + + + + + + + . .   ",
"  . . + + + + + + + + + ( + + + 1 ; ) ) ) ) ) ) - ! 1 ~ ~ ~ ~ ~ ~ ~ ~ ~ ~ ~ ~ ~ ~ ~ ~ ~ 1 ) 3 + + + + + + + + + + + + + + . .   ",
"  . . + + + + + + + + 6 ; ^ ) ) ) ) ) ) ) ) ) ) ) ! ~ ~ ~ ~ ~ ~ ~ ~ ~ ~ ~ ~ ~ ~ ~ ~ ~ ~ 1 ) ' + + + + + + + + + + + + + + . .   ",
"  . . + # # # # # * ! ] - - - ) - ; - ) ) ) ) ) ) ) b ) ) ) c b b b d ) ) ) d ) c b b d ^ ; 3 # # # + + + + + + + + + + + . .   ",
"  . . + # # # # # e f = ^ ) ) 4 _ ( < 4 ) ) ) ) ) 4 4 4 4 g g g g 4 4 4 4 4 4 4 g g 4 4 4 = 3 # # # + + + + + + + + + + + . .   ",
"  . . + + + + + + + e < = > ; : + + * > ) ) ) ) - * 6 : h i j j j k h : : : : l m j n : o f ' + + + + + + + + + + + + + + . .   ",
"  . . + + + + + + + + 5 8 8 9 + + + * > ) ) ) ) ; / p q r s t u v w x y y y z A B C s D E * | + + + + + + + + + + + + + + . .   ",
"  . . + + + + + + + + + + + + + + + * > ) ) ) ) ; / y F G H I J K L M N O & P L Q R S T U * | + + + + + + + + + + + + + + . .   ",
"  . . + + + + + + + + + + + + + + + V = ) ) ) ) - 8 & e W X Y Z e ` e e e e `  .Z ..` e % f ' + + + + + + + + + + + + + + . .   ",
"  . . + + + + + + + + + + + # # # # 0 ) ) ) ) ) ) > 8 $ 7 7 7 7 7 7 7 7 7 7 7 7 7 7 7 $ < = f + + + + + + + # # # # # # + . .   ",
"  . . + + + + + + + + + + + # # # # # 9 > ) ) ) ) ) ) ) ) ) ) ) ) ) ) ) ) ) ) ) ) ) ) ) ) 4 3 + + + + + + + # # # # # # + . .   ",
"  . . + + + + + + + + + + + + + + + + +.> ) ) ) ) { ! ] ] ] ] ] ] ] ] ] ] ] ] ] ~ ] ] ~ ^ > 3 + + + + + + + + + + + + + + . .   ",
"  . . + + + + + + + + + + + + + + + + + 6 > ) ) ) ) ) ! 1 ~ ~ ~ ~ ~ ~ ~ ~ ~ ~ ~ ~ 1 ~ , ) f + + + + + + + + + + + + + + + . .   ",
"  . . + + + + + + + + + + + + + + + + + + : > ) ) ) - ) ! 1 1 ~ ~ ~ ~ ~ ~ ~ ~ ~ ~ ~ , ] = < + + + + + + + + + + + + + + + . .   ",
"  . . + + + + + + + + + + + + + + + + + + + 0 > = - ) - ) ^ ^ 1 1 1 1 1 1 1 1 1 1 1 ) = 3 $ + + + + + + + + + + + + + + + . .   ",
"  . . + + + + + + + + + + + + + + + + + + + + 9 0 ~ ; ) ) - ) ! ! ! @.@.! ! ! ! ! ^ * 8 2 + + + + + + + + + + + + + + + + . .   ",
"  . . + + + + + + + + + + + + + + + + + + + + 2 2 | 4 ) - ) ) - - - - - - - - - - ; +.+ + + + + + + + + + + + + + + + + + . .   ",
"  . . + # # # # # # + + + + + + + + + + + + / 4 = - ) ^ ^ ) #.) ) ) ) ) ) { ) ^ d ^ = 8 # # # # # # + + + + + + + + + + + . .   ",
"  . . + # # # # # # + + + + + + + + + + + 7 g ) ) ) ! 1 1 ] ) ) ) ) ) ) ) - ^ 1 ~ ~ ! > * # # # # # + + + + + + + + + + + . .   ",
"  . . + + + + + + + + + + + + + + + + + 2 - ) ) ) ) ! ~ ~ ~ ] ) ) ) ) ) - ^ ~ ~ ~ ~ ~ ^ 4 $.+ + + + + + + + + + + + + + + . .   ",
"  . . + + + + + + + + + + + + + + + + + 7 4 ) ) ) ) ) ! 1 ~ ~ ] ) { ) - ^ ~ ~ ] ) ~ ~ 1 - $.+ + + + + + + + + + + + + + + . .   ",
"  . . + + + + + + + + + + + + + + + + + 7 g ) ) ! ] ) ) ) ) ^ ~ ) ) - ^ ~ 1 ] ) ) ) ] , #.$.+ + + + + + + + + + + + + + + . .   ",
"  . . + + + + + + + + + + + + + + + + + 7 %.) ) ] 1 ] ! ^ - - ^ - - ^ ~ ! ^ ^ - ) ! ~ , - $.+ + + + + + + + + + + + + + + . .   ",
"  . . + + + + + + + + + + + # # # # # # 7 ; ) ) ] ~ ~ 1 ] ^ ! ^ ^ ! ~ , ! ; ) ! ! ~ ~ , ) $.+ + + + + + + + # # # # # # + . .   ",
"  . . + + + + + + + + + + + # # # # # # 7 = ) ) ^ ~ 1 ~ ~ 1 1 1 1 ! ! ! ^ ) ! 1 1 ~ 1 ~ > < + + + + + + + + # # # # # # + . .   ",
"  . . + + + + + + + + + + + + + + + + + % , ; ) - @.! ] ~ ~ ~ ! ! ) - - ) ! 1 ~ ~ ~ ] - ^ +.+ + + + + + + + + + + + + + + . .   ",
"  . . + + + + + + + + + + + + + + + + + + ( ] - ) - - ^ ] ] ! - - ) ) - ^ ] ] ] ] ] ) ) 6 + + + + + + + + + + + + + + + + . .   ",
"  . . + + + + + + + + + + + + + + + + + + + e ] ) ) ) ) - ) ) ) ) ) ) ) - - ) ) ) ) ) / + + + + + + + + + + + + + + + + + . .   ",
"  . . + + + + + + + + + + + + + + + + + + + + + ] ; ) ) ) ) ) ) ) ) ) ) ) ) ) ) ) ; 2 + + + + + + + + + + + + + + + + + + . .   ",
"  . . + # # # # # # + + + + + + + + + + + + + + ~ ; ) - ^ ] ] ] ] ] ] ] ] ] ] ] ] - % + # # # # # # + + + + + + + + + + + . .   ",
"  . . + # # # # # # + + + + + + + + + + + + + f ) ) - ^ ] ~ ~ ~ ~ ~ ~ ~ ~ ~ ~ ~ ~ ) , 2 # # # # # # + + + + + + + + + + + . .   ",
"  . . + + + + + + + + + + + + + + + + + + + ( ; - ) ^ ] 1 ~ ~ ~ ~ ~ 1 1 ~ ~ ~ ~ ~ &.= _ + + + + + + + + + + + + + + + + + . .   ",
"  . . + + + + + + + + + + + + + + + + + + + + ^ - - ! 1 ~ ~ ~ ~ ! ! ^ ^ ! ~ ~ ~ ~ , - _ + + + + + + + + + + + + + + + + + . .   ",
"  . . + + + + + + + + + + + + + + + + + + + 6 ) ) ) a ~ ~ ~ ~ ! 4 > - - ^ 1 ~ ~ ~ 1 ; _ + + + + + + + + + + + + + + + + + . .   ",
"  . . + + + + + + + + + + + + + + + + + + % > ) - ] 1 ~ ~ 1 ] ; | 3 ^ ; ^ ] ~ ~ ~ 1 ; / + + + + + + + + + + + + + + + + + . .   ",
"  . . + + + + + + + + + + + # # # # # # + $ ) ) ) ] ~ ~ ~ ~ ! | + + V ) - ^ 1 ~ ~ 1 ; _ + + + + + + + + + + # # # # # # + . .   ",
"  . . + + + + + + + + + + + # # # # # # + & - ) ] ~ ~ ~ ~ ! , + + + + V *.^ ~ ~ ~ 1 ; / + + + + + + + + + + # # # # # # + . .   ",
"  . . + + + + + + + + + + + + + + + + + + % - ) ) ) ) ) ; ' + + + + + $.> ) ) ) ) ) 4 _ + + + + + + + + + + + + + + + + + . .   ",
"  . . + + + + + + + + + + + + + + + + + % ] ) ) ) ) ) 4 f + + + + + + + * 4 ) ) ) ) > / + + + + + + + + + + + + + + + + + . .   ",
"  . . + + + + + + + + + + + + + + + + / , - ) ) ) ) ^ 4 $.+ + + + + + + : 4 ^ ) ) ) ) ' f 9 + + + + + + + + + + + + + + + . .   ",
"  . . . + + + + + + + + + + + + + + + 0 = =.> > > > 4 = [ + + + + + + + 0 = 4 > > > > = = [ + + + + + + + + + + + + + + . . .   ",
"  . . . . + + + + + + + + + + + + + + 2 V * * V * -.* V 6 + + + + + + + 7 $.* V * V * * V _ + + + + + + + + + + + + + . . . .   ",
"  . . . . . + + + + + + + + + + + + + + + + + + + + + + + + + + + + + + + + + + + + + + + + + + + + + + + + + + + + . . . .     ",
"    . . . . . # # # # # + + + + + + + + + + + + + + # # # # # # + + + + + + + + + + + + + + # # # # # # + + + + + . . . . .     ",
"      . . . . . . . . . . . . . . . . . . . . . . . . . . . . . . . . . . . . . . . . . . . . . . . . . . . . . . . . . .       ",
"        . . . . . . . . . . . . . . . . . . . . . . . . . . . . . . . . . . . . . . . . . . . . . . . . . . . . . . . .         ",
"          . . . . . . . . . . . . . . . . . . . . . . . . . . . . . . . . . . . . . . . . . . . . . . . . . . . . . .           ",
"              . . . . . . . . . . . . . . . . . . . . . . . . . . . . . . . . . . . . . . . . . . . . . . . . . . .             ",
"                                                                                                                                "};
