/* XPM */
static char *_349b3faed9c49accf652feab62ae797qVjRZYNzYAeNcih8[] = {
/* columns rows colors chars-per-pixel */
"64 64 12 1 ",
"  c black",
". c #040404",
"X c #070707",
"o c #090909",
"O c #0B0B0B",
"+ c #0E0E0E",
"@ c #0F1010",
"# c #101010",
"$ c #353638",
"% c #555962",
"& c #7B7C74",
"* c white",
/* pixels */
"****************************************************************",
"****************************************************************",
"****************************************************************",
"****************************************************************",
"****************************************************************",
"****************************************************************",
"****************************************************************",
"****************************************************************",
"********XXXXXXXXXXXXXXXXXXXXXXXXXXXXXXXXXXXXXXXXXXXXXX**********",
"********XXXXXXXXXXXXXXXXXXXXXXXXXXXXXXXXXXXXXXXXXXXXXX**********",
"******XX$$$$$$$$$$$$$$$$$$$$$$$$$$$$$$$$$$$$$$$$$$$$$$XX********",
"******XX$$$$$$$$$$$$$$$$$$$$$$$$$$$$$$$$$$$$$$$$$$$$$$XX********",
"******XX$$$$$$$$$$$$$$$$$$$$$$$$$$$$$$$$$$$$$$$$$$$$$$XX********",
"******XX$$$$$$$$$$$$$$$$$$$$$$$$$$$$$$$$$$$$$$$$$$$$$$XX********",
"******XX%%%%%%%%%%%%%%%%%%%%%%%%%%%%%%%%%%%%%%%%%%%%%%XX********",
"******XX%%%%%%%%%%%%%%%%%%%%%%%%%%%%%%%%%%%%%%%%%%%%%%XX********",
"******XX%%%%%%%%%%%%%%%%%%##++++++++++++++++++++++++++OOXXXX****",
"******XX%%%%%%%%%%%%%%%%%%##++++++++++++++++++++++++++OOXXXX****",
"******XX%%%%%%%%%%%%%%%%##&&&&&&&&&&&&&&&&&&&&&&&&&&&&&&&&&&XX**",
"******XX%%%%%%%%%%%%%%%%##&&&&&&&&&&&&&&&&&&&&&&&&&&&&&&&&&&XX**",
"******XX%%%%%%%%%%%%%%%%++&&&&&&&&&&&&&&&&&&&&&&&&&&&&&&&&&&XX**",
"******XX%%%%%%%%%%%%%%%%++&&&&&&&&&&&&&&&&&&&&&&&&&&&&&&&&&&XX**",
"******XX%%%%%%%%%%%%%%%%++%%%%%%%%%%%%%%%%%%%%%%%%%%%%%%%%%%XX**",
"******XX%%%%%%%%%%%%%%%%++%%%%%%%%%%%%%%%%%%%%%%%%%%%%%%%%%%XX**",
"******XX%%%%%%%%%%%%%%%%++%%%%%%%%%%%%%%%%%%%%%%%%%%%%%%%%%%XX**",
"******XX%%%%%%%%%%%%%%%%++%%%%%%%%%%%%%%%%%%%%%%%%%%%%%%%%%%XX**",
"******XX%%%%%%%%%%%%%%%%++%%%%%%%%%%%%%%%%%%%%%%%%%%%%%%%%%%XX**",
"******XX%%%%%%%%%%%%%%%%++%%%%%%%%%%%%%%%%%%%%%%%%%%%%%%%%%%XX**",
"******XX%%%%%%%%%%%%%%%%++%%%%%%%%%%%%%%%%%%%%%%%%%%%%%%%%%%XX**",
"******XX%%%%%%%%%%%%%%%%++%%%%%%%%%%%%%%%%%%%%%%%%%%%%%%%%%%XX**",
"****XXOO++++++++++++++++OO++++@@%%%%%%%%%%%%%%%%%%%%%%%%%%%%XX**",
"****XXOO++++++++++++++++OO++++@@%%%%%%%%%%%%%%%%%%%%%%%%%%%%XX**",
"**XX&&&&&&&&&&&&&&&&&&&&&&&&&&&&@@%%%%%%%%%%%%%%%%%%%%%%%%%%XX**",
"**XX&&&&&&&&&&&&&&&&&&&&&&&&&&&&@@%%%%%%%%%%%%%%%%%%%%%%%%%%XX**",
"**XX&&&&&&&&&&&&&&&&&&&&&&&&&&&&++%%%%%%%%%%%%%%%%%%%%%%%%%%XX**",
"**XX&&&&&&&&&&&&&&&&&&&&&&&&&&&&++%%%%%%%%%%%%%%%%%%%%%%%%%%XX**",
"**XX%%%%%%%%%%%%%%%%%%%%%%%%%%%%++%%%%%%%%%%%%%%%%%%%%%%%%%%XX**",
"**XX%%%%%%%%%%%%%%%%%%%%%%%%%%%%++%%%%%%%%%%%%%%%%%%%%%%%%%%XX**",
"**XX%%%%%%%%%%%%%%%%%%%%%%%%%%%%++%%%%%%%%%%%%%%%%%%%%%%%%%%XX**",
"**XX%%%%%%%%%%%%%%%%%%%%%%%%%%%%++%%%%%%%%%%%%%%%%%%%%%%%%%%XX**",
"**XX%%%%%%%%%%%%%%%%%%%%%%%%%%%%++$$$$$$$$$$$$$$$$$$$$$$$$$$XX**",
"**XX%%%%%%%%%%%%%%%%%%%%%%%%%%%%++$$$$$$$$$$$$$$$$$$$$$$$$$$XX**",
"**XX%%%%%%%%%%%%%%%%%%%%%%%%%%%%++$$$$$$$$$$$$$$$$$$$$$$$$$$XX**",
"**XX%%%%%%%%%%%%%%%%%%%%%%%%%%%%++$$$$$$$$$$$$$$$$$$$$$$$$$$XX**",
"**XX%%%%%%%%%%%%%%%%%%%%%%%%%%%%++$$$$$$$$$$$$$$$$$$$$$$$$$$XX**",
"**XX%%%%%%%%%%%%%%%%%%%%%%%%%%%%++$$$$$$$$$$$$$$$$$$$$$$$$$$XX**",
"**XX$$$$$$$$$$$$$$$$$$$$$$$$$$$$++$$$$$$$$$$$$$$$$$$$$$$$$$$XX**",
"**XX$$$$$$$$$$$$$$$$$$$$$$$$$$$$++$$$$$$$$$$$$$$$$$$$$$$$$$$XX**",
"**XX$$$$$$$$$$$$$$$$$$$$$$$$$$$$++$$$$$$$$$$$$$$$$$$$$$$$$  XX**",
"**XX$$$$$$$$$$$$$$$$$$$$$$$$$$$$++$$$$$$$$$$$$$$$$$$$$$$$$  XX**",
"**XX$$$$$$$$$$$$$$$$$$$$$$$$$$$$++                          XX**",
"**XX$$$$$$$$$$$$$$$$$$$$$$$$$$$$++                          XX**",
"**XX  $$$$$$$$$$$$$$$$$$$$$$$$  ++                            **",
"**XX  $$$$$$$$$$$$$$$$$$$$$$$$  ++                            **",
"**XX                            ++                            **",
"**XX                            ++                            **",
"****XXXXXXXXXXXXXXXXXXXXXXXXXXXXXXXXXXXXXXXXXXXXXXXXXXXXXX  ****",
"****XXXXXXXXXXXXXXXXXXXXXXXXXXXXXXXXXXXXXXXXXXXXXXXXXXXXXX  ****",
"****************************************************************",
"****************************************************************",
"****************************************************************",
"****************************************************************",
"****************************************************************",
"****************************************************************"
};
