/* XPM */
static char *a26809dcd8c44e7f85ec3669b6c4d97cGzXhpwqA8qiL0itE[] = {
/* columns rows colors chars-per-pixel */
"64 64 5 1 ",
"  c None",
". c black",
"X c #C69E53",
"o c #CAA55C",
"O c #E0CD8B",
/* pixels */
"                                                                ",
"       ...................................................      ",
"     ......................................................     ",
"    ...OOOOOOOOOOOOOOOOOOOOOOOOOOOOOOOOOOOOOOOOOOOOOOOOOO...    ",
"   ...oXXXOOOOOOOOOOOOOOXXXXXXOOOOOOOOOOOOOOXXXXXXOOOOOOOO...   ",
"  ...XXXXXOOOOOOOOOOOOOOXXXXXXOOOOOOOOOOOOOOXXXXXXOOOOOOOOO...  ",
"  ..OOOOOOOOOOOOOOOOOOOOOOOOOOOOOOOOOOOOOOOOOOOOOOOOOOOOOOOO... ",
" ..OOOOOOOOOOOOOOOOOOOOOOOOOOOOOOOOOOOOOOOOOOOOOOOOOOOOOOOOOO.. ",
" ..OOOOOOOOOOOOOOOOOOOOOOOOOOOOOOOOOOOOOOOOOOOOOOOOOOOOOOOOOO.. ",
" ..OOOOOOOOOOOOOOOOOOOOOOOOOOOOOOOOOOOOOOOOOOOOOOOOOOOOOOOOOO.. ",
" ..OOOOOOOOOOOXXXXXXOOOOOOOOOOOOOOOOXXXXXXOOOOOOOOOOOOXXXXXXO.. ",
" ..OOOOOOOOOOOXXXXXXOOOOOOOOOOOOOOOOXXXXXXOOOOOOOOOOOOXXXXXXO.. ",
" ..OOOOOOOOOOOOOOOOOOOOOOOOOOOOOOOOOOOOOOOOOOOOOOOOOOOOOOOOOO.. ",
" ..OOOOOOOOOOOOOOOOOOOOOOOOOOOOOOOOOOOOOOOOOOOOOOOOOOOOOOOOOO.. ",
" ..OOOOOOOOOOOOOOOOOOOOOOOOOOOOOOOOOOOOOOOOOOOOOOOOOOOOOOOOOO.. ",
" ..OOOOOOOOOOOOOOOOOOOOOOOOOOOOOOOOOOOOOOOOOOOOOOOOOOOOOOOOOO.. ",
" ..OOOOOOOOOOOOOOOOOOOOOOOOOOOOOOOOOOOOOOOOOOOOOOOOOOOOOOOOOO.. ",
" ..OOOOOOOOOOOOOOOOOOOOOOOOOOOOOOOOOOOOOOOOOOOOOOOOOOOOOOOOOO.. ",
" ..OXXXXXXOOOOOOOOOOOOOOXXXXXXOOOOOOOOOOOOOOXXXXXXOOOOOOOOOOO.. ",
" ..OXXXXXXOOOOOOOOOOOOOOXXXXXXOOOOOOOOOOOOOOXXXXXXOOOOOOOOOOO.. ",
" ..OOOOOOOOOOOOOOOOOOOOOOOOOOOOOOOOOOOOOOOOOOOOOOOOOOOOOOOOOO.. ",
" ..OOOOOOOOOOOOOOOOOOOOOOOOOOOOOOOOOOOOOOOOOOOOOOOOOOOOOOOOOO.. ",
" ..OOOOOOOOOOOOOOOOOOOOOOOOOOOOOOOOOOOOOOOOOOOOOOOOOOOOOOOOOO.. ",
" ..OOOOOOOOOOOOOOOOOOOOOOOOOOOOOOOOOOOOOOOOOOOOOOOOOOOOOOOOOO.. ",
" ..OOOOOOOOOOOXXXXXXOOOOOOOOOOOOOOOOXXXXXXOOOOOOOOOOOOXXXXXXO.. ",
" ..OOOOOOOOOOOXXXXXXOOOOOOOOOOOOOOOOXXXXXXOOOOOOOOOOOOXXXXXXO.. ",
" ..OOOOOOOOOOOOOOOOOOOOOOOOOOOOOOOOOOOOOOOOOOOOOOOOOOOOOOOOOO.. ",
" ..OOOOOOOOOOOOOOOOOOOOOOOOOOOOOOOOOOOOOOOOOOOOOOOOOOOOOOOOOO.. ",
" ..OOOOOOOOOOOOOOOOOOOOOOOOOOOOOOOOOOOOOOOOOOOOOOOOOOOOOOOOOO.. ",
" ..OOOOOOOOOOOOOOOOOOOOOOOOOOOOOOOOOOOOOOOOOOOOOOOOOOOOOOOOOO.. ",
" ..OOOOOOOOOOOOOOOOOOOOOOOOOOOOOOOOOOOOOOOOOOOOOOOOOOOOOOOOOO.. ",
" ..OOOOOOOOOOOOOOOOOOOOOOOOOOOOOOOOOOOOOOOOOOOOOOOOOOOOOOOOOO.. ",
" ..OXXXXXXOOOOOOOOOOOOOOXXXXXXOOOOOOOOOOOOOOXXXXXXOOOOOOOOOOO.. ",
" ..OXXXXXXOOOOOOOOOOOOOOXXXXXXOOOOOOOOOOOOOOXXXXXXOOOOOOOOOOO.. ",
" ..OOOOOOOOOOOOOOOOOOOOOOOOOOOOOOOOOOOOOOOOOOOOOOOOOOOOOOOOOO.. ",
" ..OOOOOOOOOOOOOOOOOOOOOOOOOOOOOOOOOOOOOOOOOOOOOOOOOOOOOOOOOO.. ",
" ..OOOOOOOOOOOOOOOOOOOOOOOOOOOOOOOOOOOOOOOOOOOOOOOOOOOOOOOOOO.. ",
" ..OOOOOOOOOOOOOOOOOOOOOOOOOOOOOOOOOOOOOOOOOOOOOOOOOOOOOOOOOO.. ",
" ..OOOOOOOOOOOXXXXXXOOOOOOOOOOOOOOOOXXXXXXOOOOOOOOOOOOXXXXXXO.. ",
" ..OOOOOOOOOOOXXXXXXOOOOOOOOOOOOOOOOXXXXXXOOOOOOOOOOOOXXXXXXO.. ",
" ..OOOOOOOOOOOOOOOOOOOOOOOOOOOOOOOOOOOOOOOOOOOOOOOOOOOOOOOOOO.. ",
" ..OOOOOOOOOOOOOOOOOOOOOOOOOOOOOOOOOOOOOOOOOOOOOOOOOOOOOOOOOO.. ",
" ..OOOOOOOOOOOOOOOOOOOOOOOOOOOOOOOOOOOOOOOOOOOOOOOOOOOOOOOOOO.. ",
" ..OOOOOOOOOOOOOOOOOOOOOOOOOOOOOOOOOOOOOOOOOOOOOOOOOOOOOOOOOO.. ",
" ..OXXXXXXOOOOOOOOOOOOOOXXXXXXOOOOOOOOOOOOOOXXXXXXOOOOOOOOOOO.. ",
" ..OXXXXXXOOOOOOOOOOOOOOXXXXXXOOOOOOOOOOOOOOXXXXXXOOOOOOOOOOO.. ",
" ..OOOOOOOOOOOOOOOOOOOOOOOOOOOOOOOOOOOOOOOOOOOOOOOOOOOOOOOOOO.. ",
" ..OOOOOOOOOOOOOOOOOOOOOOOOOOOOOOOOOOOOOOOOOOOOOOOOOOOOOOOOOO.. ",
" ..OOOOOOOOOOOOOOOOOOOOOOOOOOOOOOOOOOOOOOOOOOOOOOOOOOOOOOOOOO.. ",
" ..OOOOOOOOOOOOOOOOOOOOOOOOOOOOOOOOOOOOOOOOOOOOOOOOOOOOOOOOOO.. ",
" ..OOOOOOOOOOOXXXXXXOOOOOOOOOOOOOOOOXXXXXXOOOOOOOOOOOOXXXXXXO.. ",
" ..OOOOOOOOOOOXXXXXXOOOOOOOOOOOOOOOOXXXXXXOOOOOOOOOOOOXXXXXXO.. ",
" ..OOOOOOOOOOOOOOOOOOOOOOOOOOOOOOOOOOOOOOOOOOOOOOOOOOOOOOOOOO.. ",
" ..OOOOOOOOOOOOOOOOOOOOOOOOOOOOOOOOOOOOOOOOOOOOOOOOOOOOOOOOOO.. ",
" ..OOOOOOOOOOOOOOOOOOOOOOOOOOOOOOOOOOOOOOOOOOOOOOOOOOOOOOOOOO.. ",
" ...OOOOOOOOOOOOOOOOOOOOOOOOOOOOOOOOOOOOOOOOOOOOOOOOOOOOOOOO... ",
" ....OOOOOOOOOOOOOOOOOOOOOOOOOOOOOOOOOOOOOOOOOOOOOOOOOOOOOO.... ",
" .....OOOOOOOOOOOOOOOOOOOOOOOOOOOOOOOOOOOOOOOOOOOOOOOOOOOO....  ",
"  .....XXXXXOOOOOOOOOOOOOOXXXXXXOOOOOOOOOOOOOOXXXXXXOOOOO.....  ",
"   ..........................................................   ",
"    ........................................................    ",
"     ......................................................     ",
"       ...................................................      ",
"                                                                "
};
