/* XPM */
static char *_869c2eacfbe438b8f41d05131942e4ekiTrBOnzTQDs85O8[] = {
/* columns rows colors chars-per-pixel */
"64 64 4 1 ",
"  c None",
". c black",
"X c #286080",
"o c #3FA0A4",
/* pixels */
"                                                                ",
"      ....................................................      ",
"     ......................................................     ",
"   ...oooooooooooooooooooooooooooooooooooooooooooooooooooo...   ",
"   ..oooooooooooooooooooooooooooooooooooooooooooooooooooooo..   ",
"  ..oooooooooooooooooooooooooooooooooooooooooooooooooooooooo..  ",
" ..oooooooooXoooooooooooooooXooooooooooooooooooXoooooooooooo... ",
" ..oooooXXXXoXXXooooooooXXXXoXXXoooooooooooXXXXoXXXoooooooooo.. ",
" ..oooooooooooooooooooooooooooooooooooooooooooooooooooooooooo.. ",
" ..oooooooooooooooooooooooooooooooooooooooooooooooooooooooooo.. ",
" ..oooooooooooooooooooooooooooooooooooooooooooooooooooooooooo.. ",
" ..oooooooooooooooooooooooooooooooooooooooooooooooooooooooooo.. ",
" ..oooooooooooooooooooooooooooooooooooooooooooooooooooooooooo.. ",
" ..oooooooooooooooooooooooooooooooooooooooooooooooooooooooooo.. ",
" ..oooooooooooooooooooooooooooooooooooooooooooooooooooooooooo.. ",
" ..ooooXooooooooooooXoooooooooooooooooXoooooooooooooooooXoooo.. ",
" ..XXXXoXXXoooooXXXXoXXXooooooooooXXXXoXXXooooooooooXXXXoXXXo.. ",
" ..oooooooooooooooooooooooooooooooooooooooooooooooooooooooooo.. ",
" ..oooooooooooooooooooooooooooooooooooooooooooooooooooooooooo.. ",
" ..oooooooooooooooooooooooooooooooooooooooooooooooooooooooooo.. ",
" ..oooooooooooooooooooooooooooooooooooooooooooooooooooooooooo.. ",
" ..oooooooooooooooooooooooooooooooooooooooooooooooooooooooooo.. ",
" ..oooooooooXoooooooooooooooXooooooooooooooooooXooooooooooooo.. ",
" ..oooooXXXXoXXXooooooooXXXXoXXXoooooooooooXXXXoXXXoooooooooo.. ",
" ..oooooooooooooooooooooooooooooooooooooooooooooooooooooooooo.. ",
" ..oooooooooooooooooooooooooooooooooooooooooooooooooooooooooo.. ",
" ..oooooooooooooooooooooooooooooooooooooooooooooooooooooooooo.. ",
" ..oooooooooooooooooooooooooooooooooooooooooooooooooooooooooo.. ",
" ..oooooooooooooooooooooooooooooooooooooooooooooooooooooooooo.. ",
" ..oooooooooooooooooooooooooooooooooooooooooooooooooooooooooo.. ",
" ..oooooooooooooooooooooooooooooooooooooooooooooooooooooooooo.. ",
" ..ooooXooooooooooooXoooooooooooooooooXoooooooooooooooooXoooo.. ",
" ..XXXXoXXXoooooXXXXoXXXooooooooooXXXXoXXXooooooooooXXXXoXXXo.. ",
" ..oooooooooooooooooooooooooooooooooooooooooooooooooooooooooo.. ",
" ..oooooooooooooooooooooooooooooooooooooooooooooooooooooooooo.. ",
" ..oooooooooooooooooooooooooooooooooooooooooooooooooooooooooo.. ",
" ..oooooooooooooooooooooooooooooooooooooooooooooooooooooooooo.. ",
" ..oooooooooooooooooooooooooooooooooooooooooooooooooooooooooo.. ",
" ..oooooooooooooooooooooooooooooooooooooooooooooooooooooooooo.. ",
" ..oooooooooooooooooooooooooooooooooooooooooooooooooooooooooo.. ",
" ..oooooooooXoooooooooooooooXooooooooooooooooooXooooooooooooo.. ",
" ..oooooXXXXoXXXooooooooXXXXoXXXoooooooooooXXXXoXXXoooooooooo.. ",
" ..oooooooooooooooooooooooooooooooooooooooooooooooooooooooooo.. ",
" ..oooooooooooooooooooooooooooooooooooooooooooooooooooooooooo.. ",
" ..oooooooooooooooooooooooooooooooooooooooooooooooooooooooooo.. ",
" ..oooooooooooooooooooooooooooooooooooooooooooooooooooooooooo.. ",
" ..oooooooooooooooooooooooooooooooooooooooooooooooooooooooooo.. ",
" ..oooooooooooooooooooooooooooooooooooooooooooooooooooooooooo.. ",
" ..oooooooooooooooooooooooooooooooooooooooooooooooooooooooooo.. ",
" ..ooooXooooooooooooXoooooooooooooooooXoooooooooooooooooXoooo.. ",
" ..XXXXoXXXoooooXXXXoXXXooooooooooXXXXoXXXooooooooooXXXXoXXXo.. ",
" ..oooooooooooooooooooooooooooooooooooooooooooooooooooooooooo.. ",
" ..oooooooooooooooooooooooooooooooooooooooooooooooooooooooooo.. ",
" ..oooooooooooooooooooooooooooooooooooooooooooooooooooooooooo.. ",
" ..oooooooooooooooooooooooooooooooooooooooooooooooooooooooooo.. ",
" ..oooooooooooooooooooooooooooooooooooooooooooooooooooooooooo.. ",
" ..oooooooooooooooooooooooooooooooooooooooooooooooooooooooooo.. ",
" ...ooooooooooooooooooooooooooooooooooooooooooooooooooooooooo.. ",
"  ..oooooooooooooooooooooooooooooooooooooooooooooooooooooooo..  ",
"   ..........................................................   ",
"   ..........................................................   ",
"     ......................................................     ",
"      ....................................................      ",
"                                                                "
};
